X: 1892
T: Unutulmuş Birer Birer
C: Gültekin Çeki
O: Turkey
F: http://compmusic.upf.edu/node/140
N: rast--sarki--yuruksemai--unutulmus_birer--gultekin_ceki
N: makam= rast
N: form= sarki
N: usul= yuruksemai = 6/8
M: 6/8
L: 1/16
K: C _1/4B ^f  
Q: 1/4=132
%%MIDI tuningsystem comma53
G2G2 AGB2 B2z2  | BcdB AGB2 B2z2  | d2d2 edf2 f2z2  | 
w:  ARANAĞME  |   |   | 
agfg edd2 d2z2  | c2c2 BdB2 B2Ac  | A2A2 GBA2 A2z2  | 
w:   |   |   | 
d2d2 cBB2 B2AG  | A2A2 GFG6  | G2A2 G2B6  | \
w:   |   |  U nu tul muş   | 
B2c4A2 G4  | 
w:  bi rer  bi rer   | 
B2c2 c2c6  | B2d2 cBB6  | d2c4cB B4  | A2G2 BAA6  | \
w:  Es ki  dost lar   |  es ki  dost *  lar    |  Ne  bir  se *  lam   |  ne  bir  ha *  ber   | 
d2e2 cBB2 B2A2  | 
w:  Es ki  dost *  lar   | 
A2B2 AGG6  | G2A2 G2B6  | B2c4A2 G4  | B2c2 c2c6  | \
w:  es ki  dost *  lar    |  U nu tul muş   |  bi rer  bi rer   |  Es ki  dost lar   | 
B2d2 cBB6  | 
w:  es ki  dost *  lar    | 
d2c4cB B4  | A2G2 BAA6  | d2e2 cBB2 B2A2  | \
w:  Ne  bir  se *  lam   |  ne  bir  ha *  ber   |  Es ki  dost *  lar   | 
A2B2 AGG6  | 
w:  es ki  dost *  lar    | 
G2G2 AGB2 B2z2  | BcdB AGB2 B2z2  | d2d2 edf2 f2z2  | 
w:  ARANAĞME  |   |   | 
agfg edd2 d2z2  | c2c2 BdB2 B2Ac  | A2A2 GBA2 A2z2  | 
w:   |   |   | 
d2d2 cBB2 B2AG  | A2A2 GFG6  | g2g2 {a}gff2 f2{g}fe  | 
w:   |   |  Ha yal  *  *  *  me yal   | 
e2e2 {f}edf2 f2z2  | f2f2 {g}fee2 e2{f}ed  | \
w:  düş ler  *  *  *  gi bi   |  U çup  *  *  *  gi den   | 
d2c2 B2d2 d2z2  | 
w:  kuş lar  *  gi bi   | 
c2c2 cBB2 B2BA  | A2A2 AGB2 A2z2  | d2e2 cBB2 B2A2  | 
w:  Yo sun  *  *  tu tan   |  taş lar  *  *  gi bi   |  Es ki  dost *  lar   | 
A2B2 AGG6  | g2g2 {a}gff2 f2{g}fe  | \
w:  es ki  dost *  lar    |  Ha yal  *  *  *  me yal   | 
e2e2 {f}edf2 f2z2  | f2f2 {g}fee2 e2{f}ed  | 
w:  düş ler  *  *  *  gi bi   |  U çup  *  *  *  gi den   | 
d2c2 B2d2 d2z2  | c2c2 cBB2 B2BA  | A2A2 AGB2 A2z2  | 
w:  kuş lar  *  gi bi   |  Yo sun  *  *  tu tan   |  taş lar  *  *  gi bi   | 
d2e2 cBB2 B2A2  | A2B2 AGG6  | G2G2 AGB2 B2z2  | \
w:  Es ki  dost *  lar   |  es ki  dost *  lar    |  ARANAĞME  | 
BcdB AGB2 B2z2  | 
w:   | 
d2d2 edf2 f2z2  | agfg edd2 d2z2  | c2c2 BdB2 B2Ac  | 
w:   |   |   | 
A2A2 GBA2 A2z2  | d2d2 cBB2 B2AG  | A2A2 GFG6  | \
w:   |   |   | 
d2c2 B2A6  | 
w:  U nu tul muş   | 
B2c2 B2ed d2z2  | f2f4f4f2  | f2g2 edd2 d2z2  | \
w:  i sim *  ler *  de   |  Bi lin mez  ki   |  na sıl  *  *  ner de   | 
c4 cBB4BA  | 
w:  Şim di  *  yal nız   | 
A2G2 BAA2 z4  | d2e2 cBB2 B2A2  | A2B2 AGG6  | \
w:  re sim ler *  de   |  Es ki  dost *  lar   |  es ki  dost *  lar   | 
d2c2 B2A6  | 
w:  U nu tul muş   | 
B2c2 B2ed d2z2  | f2f4f4f2  | f2g2 edd2 d2z2  | \
w:  i sim *  ler *  de   |  Bi lin mez  ki   |  na sıl  *  *  ner de   | 
c4 cBB4BA  | 
w:  Şim di  *  yal nız   | 
A2G2 BAA2 z4  | d2e2 cBB2 B2A2  | A2B2 AGG6  | |


